X: 2969
T: Basket Of Oysters
R: reel
M: 4/4
K: Dmajor
|:dc|BAGA BAAA|BGAG EDDD|BAGA BAAg|faec d2:|
|:de|f2df g2eg|f2df edBe|f2df geeg|faec d2:|

